X:1
T:Title
%%score { ( 1 3 ) | ( 2 4 ) }
L:1/8
M:6/4
K:Eb
V:1 treble nm="Grand Piano"
V:3 treble 
V:2 bass 
V:4 bass 
V:1
 z6 z4[Q:1/4=114] G2 | G2 _G2 =G2 [FA]2 [EG]2 [FA]2 | [GB]6 [EG]4 [GB]2 | %3
 [Ge]2 [Bd]2 [Ac]2 [Ac]2 [GB]2 [EG]2 |[M:5/4] [DF]2- [DF]2- [DF]6 |[M:1/4] [DF]2 | %6
[M:6/4] [DF]2 [EG]2 [FA]2 [FA]2 [=EG]2 [DFA]2 | [Ac]6 [GB]4 [Ge]2 | d2 _d2 =d2 e2 G2 =A2 | %9
[M:5/4] [DB]2- [DB]2- [DB]6 |[M:1/4] B2 |[M:6/4] .[FA]12 | [GB]6 [EG]4 [EG]2 | [Ec]6 .d6 | %14
[M:5/4] [Ge]2- [Ge]2- [Ge]6 |[M:1/4] [Ge]2 |[M:6/4] .[Ae]12 | [EGB]6 [B,EG]4 [G,E]2 | %18
 [CEF]6 [B,DA]4 [B,DA]2 |[M:5/4] [B,EG]2- [B,EG]2- [B,EG]6 |] %20
V:2
 z6 z4 [E,B,E]2 | [E,B,E]2 [E,=A,E]2 [E,B,E]2 [E,B,]2 [E,B,]2 [E,B,]2 | [E,E]6 [E,B,]4 [E,B,]2 | %3
 [E,B,]2 [E,B,]2 [E,E]2 [E,E]2 [E,E]2 [E,B,]2 |[M:5/4] [B,,B,]2- [B,,B,]2- [B,,B,]6 | %5
[M:1/4] [B,,B,]2 |[M:6/4] [B,,B,]2 [B,,B,]2 [B,,B,]2 [B,,B,]2 [B,,B,]2 B,,2 | %7
 [E,E]6 [E,E]4 [E,B,]2 | [F,B,F]2 [F,=A,F]2 [F,B,F]2 [F,CF]2 [F,CE]2 [F,E]2 | %9
[M:5/4] [B,,F,]2- [B,,F,]2- [B,,F,]6 |[M:1/4] B,2 | %11
[M:6/4] B,2 B,2 B,2 B,2[K:treble] [B,A]2 [B,DA]2 | [E,E]6 [E,B,]4 [E,G,]2 | %13
 z6[K:treble] .G6[K:bass] |[M:5/4] [C,C]2- [C,C]2- [C,C]6 |[M:1/4] [C,C]2 | %16
[M:6/4] [A,C]2 A,2 A,2 A,2 A,2 A,2 | E,6 E,4 E,2 | A,,6 B,,4 B,,2 |[M:5/4] E,2- E,2- E,6 |] %20
V:3
 x12 | x12 | x12 | x12 |[M:5/4] x10 |[M:1/4] x2 |[M:6/4] x12 | x12 | x12 |[M:5/4] x10 |[M:1/4] x2 | %11
[M:6/4] D2 D2 D2 D2 d2 c2 | x12 | z2 G,2 G,2 z2 =B,2 G2 |[M:5/4] x10 |[M:1/4] x2 | %16
[M:6/4] z2 C2 C2 C2 [DAd]2 [EAc]2 | x12 | x12 |[M:5/4] x10 |] %20
V:4
 x12 | x12 | x12 | x12 |[M:5/4] x10 |[M:1/4] x2 |[M:6/4] x12 | x12 | x12 |[M:5/4] x10 |[M:1/4] x2 | %11
[M:6/4] x8[K:treble] x4 | x12 | [C,G,]2 C,2 C,2[K:treble] [G,=B,]2 G,2[K:bass] [G,B,]2 | %14
[M:5/4] x10 |[M:1/4] x2 |[M:6/4] x12 | x12 | x12 |[M:5/4] x10 |] %20

